X: 570
T: Firemen(Yangin olur biz)
B: incoming
M:9/8
Q: 3/8=100
K:Dm
V:1 
|:CD/2D/2DFEFD2C|D2E2G2F2E|FEEDD2D3:|
|:D3AA2AGF|G2A2BcAGF|FEEDD2D3:|
|:D3FEFD2C|D2E2G2F2E|FEEDD2D3:|
|:D3AA2AGF|G2A2BcAGF|FEEDD2D3:|
|:CDDFEFD2C|D2E2G2F2E|FEEDD2D3:|
|:D3FEFD2C|D2E2G2F2E|FEEDD2D3:|
% abcbook-tune_id 63cb1127e954550e066a67e4
% abcbook-tune_composer_id 
% abcbook-boost 0
% abcbook-difficulty 0
% abcbook-tags balkan dances
% abcbook-tablature 
% abcbook-transpose 
% abcbook-tuning 
% abcbook-lastupdated 1674252583330
% abcbook-soundfonts 
% abcbook-repeats 1


